X:1
T:Three Drunken Maidens
M:2/4
L:1/8
K:G
 D| DB AG| E2 Dc| B3/2 G/2 AF| G2 z B| DB AG| E2 DB| BG A/2G/2 F| G2 z B|\
 c/2c/2 BA B| c3/2 B/2 Ac| BG Bc| d2 z d| DB AG| E2 D c/2c/2| B3/2 G/2 AF|\
 G2 z||
